packages/foundations/assets/icons/functional/images/arrows/arrow_up_right_28.svg

<svg width="28" height="28" viewBox="0 0 28 28" fill="none" xmlns="http://www.w3.org/2000/svg">
<g clip-path="url(#clip0_77_521)">
<path fill-rule="evenodd" clip-rule="evenodd" d="M7.43754 19.6613C7.43754 19.4913 7.49554 19.2963 7.63754 19.1543L17.5735 9.15532H10.0565C9.65854 9.15532 9.17454 8.90232 9.17454 8.33832C9.17454 7.85932 9.54454 7.43732 10.0565 7.43732H19.6795C20.1355 7.43732 20.5625 7.77532 20.5625 8.16932V17.8023C20.5602 18.0348 20.4661 18.257 20.3007 18.4205C20.1353 18.584 19.9121 18.6756 19.6795 18.6753C19.2245 18.6753 18.7975 18.3373 18.7975 17.9153V10.3663L8.94654 20.3093C8.82079 20.4324 8.66131 20.5153 8.48835 20.5476C8.31538 20.5799 8.13673 20.56 7.97505 20.4906C7.81338 20.4212 7.67597 20.3053 7.58027 20.1576C7.48457 20.01 7.43489 19.8372 7.43754 19.6613Z" fill="#1A1C1F"/>
</g>
<defs>
<clipPath id="clip0_77_521">
<rect width="28" height="28" fill="white"/>
</clipPath>
</defs>
</svg>

<svg xmlns="http://www.w3.org/2000/svg" width="28" height="28" fill="none"><g clip-path="url(#a)"><path fill="#1A1C1F" fill-rule="evenodd" d="M7.438 19.661c0-.17.058-.365.2-.507l9.935-9.999h-7.517c-.397 0-.881-.253-.881-.817 0-.479.37-.9.881-.9h9.624c.456 0 .883.337.883.731v9.633a.88.88 0 0 1-.883.873c-.456 0-.883-.338-.883-.76v-7.549l-9.85 9.943a.888.888 0 0 1-1.51-.648" clip-rule="evenodd"/></g><defs><clipPath id="a"><path fill="#fff" d="M0 0h28v28H0z"/></clipPath></defs></svg>
